public/img/dress.svg

<?xml version="1.0" encoding="UTF-8" standalone="no"?>
<!DOCTYPE svg PUBLIC "-//W3C//DTD SVG 1.1//EN" "http://www.w3.org/Graphics/SVG/1.1/DTD/svg11.dtd">
<svg width="100%" height="100%" viewBox="0 0 800 718" version="1.1" xmlns="http://www.w3.org/2000/svg" xmlns:xlink="http://www.w3.org/1999/xlink" xml:space="preserve" xmlns:serif="http://www.serif.com/" style="fill-rule:evenodd;clip-rule:evenodd;stroke-linecap:round;stroke-linejoin:bevel;stroke-miterlimit:2;">
    <g transform="matrix(1,0,0,1,-17.1361,0.339237)">
        <g>
            <g transform="matrix(1.08496,0,0,1.27594,-20.6705,-27.48)">
                <path d="M248.8,255.7L194,255.7L183.9,240.6C172.9,224.2 167.1,205.1 167.1,185.4L167.1,147.5L182.4,147.5L182.4,181.2C184.8,182.4 189.4,183.7 191.7,183.9C197.5,184.4 205.8,186 212.5,190.5C216.2,193 219.1,195.6 221.5,198.1C223.8,195.6 226.8,193 230.5,190.5C237.2,186 245.5,184.4 251.3,183.9C253.5,183.7 258.2,182.3 260.6,181.2L260.6,147.6L275.9,147.6L275.9,185.6C275.9,205.3 270.1,224.4 259.1,240.8L248.8,255.7ZM202.1,240.3L240.6,240.3L246.2,232C253.2,221.6 257.7,209.9 259.5,197.6C255.6,198.6 252.6,199 252.5,199C246.9,199.5 242,200.9 239,203C232.4,207.5 229.5,212.1 228.3,214.5L221.5,228.1L214.7,214.5C213.5,212.1 210.5,207.5 204,203C200.9,200.9 196.1,199.5 190.5,199C190.4,199 187.4,198.6 183.5,197.6C185.3,209.9 189.8,221.6 196.8,232L202.1,240.3Z" style="fill:rgb(0,54,88);fill-rule:nonzero;stroke:rgb(0,54,88);stroke-width:10.98px;"/>
            </g>
            <g transform="matrix(1,0,0,0.813152,0,103.981)">
                <path d="M220.8,556.5C210.4,556.5 200.1,555.2 190,552.6L172.6,548.1L165.4,550.2C141.7,557 116.7,556.5 93.2,548.8L79.5,544.3L80.4,538C81.1,532.8 97.9,411.1 118.6,358.7C138.7,307.9 186.4,249.9 191.7,243.6C192,243.2 192.3,242.8 192.7,242.5C195.1,240.1 198,239.7 206.4,239.6C210.3,239.5 215.4,239.6 221.5,239.7C227.6,239.6 232.7,239.5 236.6,239.6C245,239.7 247.9,240.1 250.3,242.5C250.7,242.9 251,243.2 251.3,243.6C256.6,249.9 304.3,307.9 324.4,358.7C345.1,411.1 361.9,532.8 362.6,538L363.4,543.9L357.8,546.1C332.6,556.1 304.3,557.6 278.2,550.1L270.3,547.8L250.7,552.7C240.9,555.2 230.9,556.5 220.8,556.5ZM172.4,532.2L193.8,537.7C211.2,542.2 229.6,542.3 247,537.9L270.6,532L282.4,535.4C303.3,541.4 325.9,540.8 346.5,533.9C342.8,508.3 327.5,408.5 310.1,364.2C292.3,319 249.8,265.8 240.8,254.8C238.4,254.7 233,254.5 221.7,254.8L221.3,254.8C209.9,254.6 204.6,254.7 202.2,254.8C193.2,265.8 150.7,319 132.9,364.2C115.5,408.3 100.3,507.6 96.5,533.6L98,534.1C118.6,540.8 140.4,541.2 161.2,535.3L172.4,532.2Z" style="fill:rgb(0,54,88);fill-rule:nonzero;stroke:rgb(0,54,88);stroke-width:19.75px;"/>
            </g>
        </g>
    </g>
    <g>
        <g transform="matrix(1,0,0,0.977401,42.2135,14.2552)">
            <g>
                <path d="M592.8,268.3L543,215.9L487.9,265.8L478.6,255.6L543.7,196.6L602.9,258.8L592.8,268.3Z" style="fill:rgb(0,54,88);fill-rule:nonzero;stroke:rgb(0,54,88);stroke-width:9.1px;stroke-linejoin:miter;stroke-miterlimit:1;"/>
            </g>
            <g>
                <path d="M560.1,269.5L525.7,269.5L510.7,234.3L523.5,228.9L534.8,255.7L551.1,255.7L561.5,232.5L574.1,238.2L560.1,269.5Z" style="fill:rgb(0,54,88);fill-rule:nonzero;stroke:rgb(0,54,88);stroke-width:9.1px;stroke-linejoin:miter;stroke-miterlimit:1;"/>
            </g>
            <g>
                <path d="M519.7,389.7L507.4,387.6L523.4,261.7L537.1,263.5L519.7,389.7Z" style="fill:rgb(0,54,88);fill-rule:nonzero;stroke:rgb(0,54,88);stroke-width:9.1px;stroke-linejoin:miter;stroke-miterlimit:1;"/>
            </g>
            <g>
                <path d="M564.7,389.3L548.7,263.4L562.5,261.8L576.6,387.7L564.7,389.3Z" style="fill:rgb(0,54,88);fill-rule:nonzero;stroke:rgb(0,54,88);stroke-width:9.1px;stroke-linejoin:miter;stroke-miterlimit:1;"/>
            </g>
        </g>
        <g transform="matrix(1,0,0,1,0,-3)">
            <path d="M584.817,544.006C523.212,544.006 400,294.911 400,229.75C400,228 504.292,161.061 506.042,161.061C507.792,161.061 557.689,206.412 584.817,206.412C611.946,206.412 668.813,161.061 668.813,161.061C668.813,161.061 769.635,227.652 769.635,229.75C769.635,295.092 646.423,544.006 584.817,544.006ZM504.135,194.945C515.615,203.698 532.526,215.91 546.304,223.102C560.146,230.326 573.855,234.412 584.817,234.412C596.325,234.412 611.922,229.616 627.692,221.536C642.772,213.81 658.431,203.349 669.76,195.269C689.519,208.38 722.303,230.233 740.166,242.692C738.1,253.384 733.979,266.776 728.646,281.867C708.082,340.056 668.066,419.709 629.42,471.792C618.563,486.423 607.936,498.781 597.875,507.386C592.757,511.763 588.97,516.006 584.817,516.006C580.666,516.006 576.883,511.76 571.767,507.381C561.705,498.77 551.076,486.404 540.219,471.764C501.571,419.649 461.553,339.959 440.988,281.792C435.73,266.921 431.65,253.705 429.561,243.108C448.555,230.385 483.601,207.828 504.135,194.945Z" style="fill:rgb(0,54,88);"/>
        </g>
        <path d="M503.212,177.001L584.817,530.116L670.646,178.94" style="fill:none;stroke:rgb(0,54,88);stroke-width:26px;stroke-linejoin:miter;stroke-miterlimit:1;"/>
    </g>
</svg>

<svg xmlns="http://www.w3.org/2000/svg" x="0px" y="0px"
	 viewBox="0 0 800 717.9" style="enable-background:new 0 0 800 717.9;" xml:space="preserve">
<style type="text/css">
	.st0{fill:#003658}
</style>
<g>
	<g>
		<g>
			<path class="st0" d="M248.8,255.7h-54.8l-10.1-15.1c-11-16.4-16.8-35.5-16.8-55.2v-0.9c0-0.3,0-0.5,0-0.8v-36.2h15.3l0,7.7v26
				c2.4,1.2,7,2.5,9.3,2.7c5.8,0.5,14.1,2.1,20.8,6.6c3.7,2.5,6.6,5.1,9,7.6c2.3-2.5,5.3-5.1,9-7.6c6.7-4.5,15-6.1,20.8-6.6
				c2.2-0.2,6.9-1.6,9.3-2.7v-33.6h15.3l0,7.7v28.6c0,0.3,0,0.6,0,0.8v0.9c0,19.7-5.8,38.8-16.8,55.2L248.8,255.7z M202.1,240.3
				h38.5l5.6-8.3c7-10.4,11.5-22.1,13.3-34.4c-3.9,1-6.9,1.4-7,1.4c-5.6,0.5-10.5,1.9-13.5,4c-6.6,4.5-9.5,9.1-10.7,11.5l-6.8,13.6
				l-6.8-13.6c-1.2-2.4-4.2-7-10.7-11.5c-3.1-2.1-7.9-3.5-13.5-4c-0.1,0-3.1-0.4-7-1.4c1.8,12.3,6.3,24,13.3,34.4L202.1,240.3z"/>
		</g>
		<g>
			<path class="st0" d="M220.8,556.5c-10.4,0-20.7-1.3-30.8-3.9l-17.4-4.5l-7.2,2.1c-23.7,6.8-48.7,6.3-72.2-1.4l-13.7-4.5l0.9-6.3
				c0.7-5.2,17.5-126.9,38.2-179.3c20.1-50.8,67.8-108.8,73.1-115.1c0.3-0.4,0.6-0.8,1-1.1c2.4-2.4,5.3-2.8,13.7-2.9
				c3.9-0.1,9,0,15.1,0.1c6.1-0.1,11.2-0.2,15.1-0.1c8.4,0.1,11.3,0.5,13.7,2.9c0.4,0.4,0.7,0.7,1,1.1c5.3,6.3,53,64.3,73.1,115.1
				l0,0c20.7,52.4,37.5,174.1,38.2,179.3l0.8,5.9l-5.6,2.2c-25.2,10-53.5,11.5-79.6,4l-7.9-2.3l-19.6,4.9
				C240.9,555.2,230.9,556.5,220.8,556.5z M172.4,532.2l21.4,5.5c17.4,4.5,35.8,4.6,53.2,0.2l23.6-5.9l11.8,3.4
				c20.9,6,43.5,5.4,64.1-1.5c-3.7-25.6-19-125.4-36.4-169.7l0,0c-17.8-45.2-60.3-98.4-69.3-109.4c-2.4-0.1-7.8-0.3-19.1,0l-0.2,0
				l-0.2,0c-11.4-0.2-16.7-0.1-19.1,0c-9,11-51.5,64.2-69.3,109.4c-17.4,44.1-32.6,143.4-36.4,169.4l1.5,0.5
				c20.6,6.7,42.4,7.1,63.2,1.2L172.4,532.2z"/>
		</g>
	</g>
</g>
<g>
	<g>
		<g>
			<path class="st0" d="M541.4,542L346.7,236.3l49.7,9.5l6.2-4l-46.4-18l109.5-73.6l76.5,333.3l76.5-333.3l109.5,73.6l-46.4,18
				l6.2,4l49.6-9.5L541.4,542z M627.7,173L552,502.8L708.8,256l-23.6,4.5l-50.5-33.2l3.2-14l32.4,18.1l28.3-10.9L627.7,173z
				 M375.6,256l156.5,245.8L456.7,173l-70.8,47.6l28.3,10.9l32.4-18.1l4.1,13.6l-51.5,33.5L375.6,256z"/>
		</g>
		<g>
			<polygon class="st0" points="543.4,209.1 457.9,162.7 464.5,150.5 543.3,193.3 619.8,150.6 626.6,162.7"/>
		</g>
		<g>
			<polygon class="st0" points="592.8,268.3 543,215.9 487.9,265.8 478.6,255.6 543.7,196.6 602.9,258.8"/>
		</g>
		<g>
			<polygon class="st0" points="560.1,269.5 525.7,269.5 510.7,234.3 523.5,228.9 534.8,255.7 551.1,255.7 561.5,232.5 574.1,238.2 
							"/>
		</g>
		<g>
			<polygon class="st0" points="519.7,389.7 507.4,387.6 523.4,261.7 537.1,263.5"/>
		</g>
		<g>
			<polygon class="st0" points="564.7,389.3 548.7,263.4 562.5,261.8 576.6,387.7"/>
		</g>
	</g>
</g>
</svg>
